X:1
T: La Morrisque
C:16th Century French
S:Arbeau's Orchesographie
O:Duns Tew
M:C|
L:1/4
K:G
|: d d d e | d3    c | B G G A/G/ | F2 D2  | 
   d d d e | d3    c | B G G A    | G2 G2 :| 
|: B G G A | B G G A | B G G A    | F2 D2  | 
   B G G A | B G G A | B G G A    | G2 G2 :|
